!!!COM: Ludwig van Beethoven
!!!CNT: Deutsch
!!!TXO: Deutsch
!!!OTL: "Kennst du das Land"
!!!LYR: Goethe, Johann Wolfgang
!!!OPS: Op. 75
!!!ONM: No. 1
!!!ENC: Amanda Harris
!!!YOR: Sa2mtliche Lieder, Band 1
!!!YOR: G. Henle Verlag
!!!ODT: 1809/
!!NB: Vocal melody and text encoded.
**kern	**silbe
*clefG2	*
*k[f#c#g#]	*
*M2/4	*
*MM[ziemlich langsam]	*
=1	=1
{4e	{Kennst
8.f#	du
16g#	das
=2	=2
4.a	Land?
8a	wo
=3	=3
8a	die
8a	Zi-
8.dd	-tro-
16cc#	-nen
=4	=4
4cc#	blu2hn,
8b	|
8e	im
=5	=5
8.e	dun-
16e	-keln
8f#	Laub
8g#	die
=6	=6
8a	Gold-
8a	-o-
8.dd	-ran-
16cc#	-gen
=7	=7
4cc#	glu2hn,
8b}	|}
{8b	{ein
=8	=8
8.ccn	sanf-
16ccn	-ter
8b	Wind
8a	vom
=9	=9
8g#	blau-
16a	-en
16ee	|
8.ee	Him-
32dd	-mel
32ccn	|
=10	=10
8.b	weht,
16b	die
8b	Myr-
8ccn	-te
=11	=11
8dd	still
8gn	und
8ee	hoch
8ccn	der
=12	=12
[4ffn	Lor-
16ffn]	|
16dd	|
16ccn	-beer
16b	|
=13	=13
4ccn}	steht.}
4r	.
=16	=16
{4a	{Kennst
8.ccn	du
16dd	es
=17	=17
[4ee	wohl?
8ee]}	|}
*M6/8	*
*MM[geschwinder]	*
{8dd	{Da-
=18	=18
[4.cc#	-hin!
4cc#]	|
8ee	da-
=19	=19
[4.dd	-hin!
4dd]	|
8ff#	mo2cht'
=20	=20
4ff#	ich
8ee	mit
4d	dir,
8cc#	o
=21	=21
4b	mein
8cc#	|
4dd	Ge-
8b	|
=22	=22
4.a	-lieb-
4.b	-ter,
=23	=23
4cc#}	ziehn.}
8r	.
4r	.
{8ee	{Da-
=24	=24
4dd	-hin!
8r	.
4r	.
8ff#	da-
=25	=25
4ff#	-hin
8ee	mo2cht'
4dd	ich
8cc#	mit
=26	=26
4b	dir,
8cc#	o
8ee	mein
8dd	|
8b	Ge-
=27	=27
4.a	-lieb-
4cc#	-ter,
8b	|
=28	=28
4a}	ziehn.}
8r	.
4r	.
8r	.
=29	=29
4r	.
8r	.
{4dd	{Da-
8ee	|
=30	=30
4cc#	-hin!
8r	.
4r	.
8r	.
=31	=31
4r	.
8r	.
4dd	da-
8g#	|
=32	=32
*M2/4	*
*MM[tempo I]	*
4a}	-hin!}
4r	.
=33	=33
{4e	{Kennst
8.f#	du
16g#	das
=34	=34
4.a	Haus?
8a	Auf
=35	=35
8a	Sa2u-
8a	-len
8dd	ruht
8cc#	sein
=36	=36
4cc#	Dach,
8b	|
8e	es
=37	=37
8.e	gla2nzt
16e	der
8f#	Saal,
8g#	es
=38	=38
8a	schim-
8a	-mert
8dd	das
8cc#	Ge-
=39	=39
4cc#	-mach,
8b}	|}
{8b	{und
=40	=40
8.ccn	Mar-
16ccn	-mor-
8b	-bil-
8a	-der
=41	=41
8g#	stehn
16a	und
16ee	|
8.ee	sehn
32dd	mich
32ccn	|
=42	=42
8.b	an:
16b	was
8b	hat
8ccn	man
=43	=43
8dd	dir,
8gn	du
8ee	ar-
8ccn	-mes
=44	=44
[4ffn	Kind,
16ffn]	|
16dd	|
16ccn	ge-
16b	|
=45	=45
4ccn}	-tan?}
4r	.
=48	=48
{4a	{Kennst
8.ccn	du
16dd	es
=49	=49
[4ee	wohl?
8ee]}	|}
*M6/8	*
*MM[geschwinder]	*
{8dd	{Da-
=50	=50
[4.cc#	-hin!
4cc#]	|
8ee	da-
=51	=51
[4.dd	-hin!
4dd]	|
8ff#	mo2cht'
=52	=52
4ff#	ich
8ee	mit
4dd	dir,
8cc#	o
=53	=53
4b	mein
8cc#	|
4dd	Be-
8b	|
=54	=54
4.a	-schu2t-
4.b	-zer,
=55	=55
4cc#}	ziehn.}
8r	.
4r	.
{8ee	{Da-
=56	=56
4dd	-hin!
8r	.
4r	.
8ff#	da-
=57	=57
4ff#	-hin
8ee	mo2cht'
4dd	ich
8cc#	mit
=58	=58
4b	dir,
8cc#	o
8ee	mein
8dd	|
8b	Be-
=59	=59
4.a	-schu2t-
4cc#	-zer,
8b	|
=60	=60
4a}	ziehn.}
8r	.
4r	.
8r	.
=61	=61
4r	.
8r	.
{4dd	{Da-
8ee	|
=62	=62
4cc#	-hin!
8r	.
4r	.
8r	.
=63	=63
4r	.
8r	.
4dd	da-
8g#	|
=64	=64
*M2/4	*
*MM[tempo I]	*
4a	-hin!
4r	.
=65	=65
4e	Kennst
8.f#	du
16g#	den
=66	=66
4.a	Berg
8a	und
=67	=67
8a	sei-
8a	-nen
8.dd	Wol-
16cc#	-ken-
=68	=68
4cc#	-steg?
8b	|
8e	Das
=69	=69
8.e	Maul-
16e	-tier
8f#	sucht
8g#	im
=70	=70
8a	Ne-
8a	-bel
8.dd	sei-
16cc#	-nen
=71	=71
4cc#	Weg,
8b}	|}
{8b	{in
=72	=72
8.ccn	Ho2h-
16ccn	-len
8b	wohnt
8a	der
=73	=73
8g#	Dra-
16a	-chen
16ee	|
8.ee	al-
32dd	-te
32ccn	|
=74	=74
8.b	Brut,
16b	es
8b	stu2rzt
8ccn	der
=75	=75
8dd	Fels
8gn	und
8ee	u2-
8ccn	-ber
=76	=76
[4ffn	ihn
16ffn]	|
16dd	|
16ccn	die
16b	|
=77	=77
4ccn}	Flut.}
4r	.
=80	=80
{4a	{Kennst
8.ccn	du
16d	ihn
=81	=81
[4ee	wohl?
8ee]}	|}
*M6/8	*
*MM[geschwinder]	*
{8dd	{Da-
=82	=82
[4.cc#	-hin!
4cc#]	|
8ee	da-
=83	=83
[4.dd	-hin!
4dd]	|
8ff#	geht
=84	=84
4ff#	un-
8ee	ser
4dd	Weg,
8cc#	o
=85	=85
4b	Va-
8cc#	|
4dd	-ter,
8b}	|}
=86	=86
{4.a	{lass
4.b	uns
=87	=87
4cc#	ziehn!
8r	.
4r	.
8ee	Da-
=88	=88
4dd	-hin!
8r	.
4r	.
8ff#	da-
=89	=89
4ff#	-hin
8ee	geht
4dd	un-
8cc#	-ser
=90	=90
4b	Weg,
8cc#	o
8ee	Va-
8dd	|
8b	-ter,
=91	=91
4.a	lass
4cc#	uns
8b	|
=92	=92
4a}	ziehn!}
8r	.
4r	.
8r	.
=93	=93
4r	.
8r	.
{4dd	{Da-
8ee	|
=94	=94
4cc#	-hin
8r	.
4r	.
8r	.
=95	=95
[2.dd	lass
=96	=96
4.dd_	|
4dd]	|
8g#	uns
=97	=97
4a}	ziehn!}
8r	.
4r	.
8r	.
*-	*-
